svg/diode.svg

<svg width="24" height="24" viewBox="0 0 24 24" xmlns="http://www.w3.org/2000/svg"><path d="M22 11h-6V8h-2v3h-1L6 7v4H2v2h4v4l7-4h1v3h2v-3h6v-2z"/></svg>

<svg width="24" height="24" viewBox="0 0 24 24" xmlns="http://www.w3.org/2000/svg">
<path d="M22 11H16V8H14V11H13L6 7V11H2V13H6V17L13 13H14V16H16V13H22V11Z" />
</svg>
